icons/modern/winking-face.svg

<svg width="32" height="32" viewBox="0 0 32 32" fill="none" xmlns="http://www.w3.org/2000/svg">
<path d="M15.9989 29.9978C25.3333 29.9978 29.9978 23.7303 29.9978 15.9989C29.9978 8.26751 25.3333 2 15.9989 2C6.66443 2 2 8.26751 2 15.9989C2 23.7303 6.66443 29.9978 15.9989 29.9978Z" fill="url(#paint0_radial_23_431)"/>
<path d="M15.9989 29.9978C25.3333 29.9978 29.9978 23.7303 29.9978 15.9989C29.9978 8.26751 25.3333 2 15.9989 2C6.66443 2 2 8.26751 2 15.9989C2 23.7303 6.66443 29.9978 15.9989 29.9978Z" fill="url(#paint1_radial_23_431)"/>
<path d="M15.9989 29.9978C25.3333 29.9978 29.9978 23.7303 29.9978 15.9989C29.9978 8.26751 25.3333 2 15.9989 2C6.66443 2 2 8.26751 2 15.9989C2 23.7303 6.66443 29.9978 15.9989 29.9978Z" fill="url(#paint2_radial_23_431)"/>
<path d="M15.9989 29.9978C25.3333 29.9978 29.9978 23.7303 29.9978 15.9989C29.9978 8.26751 25.3333 2 15.9989 2C6.66443 2 2 8.26751 2 15.9989C2 23.7303 6.66443 29.9978 15.9989 29.9978Z" fill="url(#paint3_radial_23_431)" fill-opacity="0.6"/>
<path d="M15.9989 29.9978C25.3333 29.9978 29.9978 23.7303 29.9978 15.9989C29.9978 8.26751 25.3333 2 15.9989 2C6.66443 2 2 8.26751 2 15.9989C2 23.7303 6.66443 29.9978 15.9989 29.9978Z" fill="url(#paint4_radial_23_431)"/>
<path d="M15.9989 29.9978C25.3333 29.9978 29.9978 23.7303 29.9978 15.9989C29.9978 8.26751 25.3333 2 15.9989 2C6.66443 2 2 8.26751 2 15.9989C2 23.7303 6.66443 29.9978 15.9989 29.9978Z" fill="url(#paint5_radial_23_431)"/>
<path d="M15.9989 29.9978C25.3333 29.9978 29.9978 23.7303 29.9978 15.9989C29.9978 8.26751 25.3333 2 15.9989 2C6.66443 2 2 8.26751 2 15.9989C2 23.7303 6.66443 29.9978 15.9989 29.9978Z" fill="url(#paint6_radial_23_431)"/>
<path d="M15.9989 29.9978C25.3333 29.9978 29.9978 23.7303 29.9978 15.9989C29.9978 8.26751 25.3333 2 15.9989 2C6.66443 2 2 8.26751 2 15.9989C2 23.7303 6.66443 29.9978 15.9989 29.9978Z" fill="url(#paint7_radial_23_431)"/>
<path d="M13.9577 17.3801C14.6085 16.5997 15 15.5956 15 14.5C15 12.0147 12.9853 10 10.5 10C8.01472 10 6 12.0147 6 14.5C6 15.5956 6.39151 16.5997 7.04226 17.3801C7.86528 16.9672 9.10478 16.5 10.5 16.5C11.8952 16.5 13.1347 16.9672 13.9577 17.3801Z" fill="white"/>
<path d="M13.1984 17.0414C13.6958 16.5059 14 15.7885 14 15C14 13.3431 12.6569 12 11 12C9.34315 12 8 13.3431 8 15C8 15.6654 8.2166 16.2801 8.58314 16.7776C9.16357 16.6133 9.8129 16.5 10.5 16.5C11.5155 16.5 12.4484 16.7475 13.1984 17.0414Z" fill="url(#paint8_linear_23_431)"/>
<path fill-rule="evenodd" clip-rule="evenodd" d="M21 14C19.5452 14 19.0479 14.9314 18.9701 15.2425C18.8362 15.7783 18.2933 16.1041 17.7575 15.9701C17.2217 15.8362 16.8959 15.2933 17.0298 14.7575C17.2854 13.7352 18.4548 12 21 12C23.5452 12 24.7146 13.7352 24.9701 14.7575C25.1041 15.2933 24.7783 15.8362 24.2425 15.9701C23.7067 16.1041 23.1638 15.7783 23.0299 15.2425C22.9521 14.9314 22.4548 14 21 14Z" fill="url(#paint9_radial_23_431)"/>
<path fill-rule="evenodd" clip-rule="evenodd" d="M21 8.5C21 8.22386 21.2239 8 21.5 8C22.2743 8 23.2425 8.2843 24.0846 8.83052C24.9329 9.38077 25.697 10.2264 25.9851 11.3787C26.052 11.6466 25.8892 11.9181 25.6213 11.9851C25.3534 12.052 25.0819 11.8892 25.0149 11.6213C24.803 10.7736 24.2338 10.1192 23.5404 9.66948C22.8408 9.2157 22.0591 9 21.5 9C21.2239 9 21 8.77614 21 8.5Z" fill="url(#paint10_linear_23_431)"/>
<path fill-rule="evenodd" clip-rule="evenodd" d="M8.06915 7.98761C7.47625 8.55049 7.11769 9.22774 6.97423 9.65811C6.88691 9.92009 6.60375 10.0617 6.34178 9.97434C6.07981 9.88702 5.93823 9.60386 6.02555 9.34189C6.21542 8.77226 6.65687 7.94951 7.38064 7.26239C8.1129 6.5672 9.1478 6 10.4999 6C10.776 6 10.9999 6.22386 10.9999 6.5C10.9999 6.77614 10.776 7 10.4999 7C9.45198 7 8.65355 7.4328 8.06915 7.98761Z" fill="url(#paint11_linear_23_431)"/>
<path d="M16 26C9 26 9 19 9 19H23C23 19 23 26 16 26Z" fill="url(#paint12_radial_23_431)"/>
<path fill-rule="evenodd" clip-rule="evenodd" d="M22.8136 20.5H9.18644C9 19.6243 9 19 9 19H23C23 19 23 19.6243 22.8136 20.5Z" fill="url(#paint13_linear_23_431)"/>
<defs>
<radialGradient id="paint0_radial_23_431" cx="0" cy="0" r="1" gradientUnits="userSpaceOnUse" gradientTransform="translate(25.5 9) rotate(132.839) scale(37.5033)">
<stop stop-color="#FFF478"/>
<stop offset="0.474827" stop-color="#FFB02E"/>
<stop offset="1" stop-color="#F70A8D"/>
</radialGradient>
<radialGradient id="paint1_radial_23_431" cx="0" cy="0" r="1" gradientUnits="userSpaceOnUse" gradientTransform="translate(25.5 9) rotate(131.878) scale(38.9487)">
<stop stop-color="#FFF478"/>
<stop offset="0.474827" stop-color="#FFB02E"/>
<stop offset="1" stop-color="#F70A8D"/>
</radialGradient>
<radialGradient id="paint2_radial_23_431" cx="0" cy="0" r="1" gradientUnits="userSpaceOnUse" gradientTransform="translate(16 12.5) rotate(101.31) scale(17.8466 22.8581)">
<stop offset="0.787821" stop-color="#F59639" stop-opacity="0"/>
<stop offset="0.972509" stop-color="#FF7DCE"/>
</radialGradient>
<radialGradient id="paint3_radial_23_431" cx="0" cy="0" r="1" gradientUnits="userSpaceOnUse" gradientTransform="translate(18 14) rotate(135) scale(41.0122)">
<stop offset="0.314853" stop-opacity="0"/>
<stop offset="1"/>
</radialGradient>
<radialGradient id="paint4_radial_23_431" cx="0" cy="0" r="1" gradientUnits="userSpaceOnUse" gradientTransform="translate(16 17) rotate(77.692) scale(28.1469)">
<stop offset="0.507903" stop-color="#7D6133" stop-opacity="0"/>
<stop offset="1" stop-color="#715B32"/>
</radialGradient>
<radialGradient id="paint5_radial_23_431" cx="0" cy="0" r="1" gradientUnits="userSpaceOnUse" gradientTransform="translate(16.5 16.5) rotate(55.7131) scale(13.3135 9.65032)">
<stop stop-color="#FFB849"/>
<stop offset="1" stop-color="#FFB847" stop-opacity="0"/>
</radialGradient>
<radialGradient id="paint6_radial_23_431" cx="0" cy="0" r="1" gradientUnits="userSpaceOnUse" gradientTransform="translate(20.5 18) rotate(9.86581) scale(11.6726)">
<stop stop-color="#FFA64B"/>
<stop offset="0.900412" stop-color="#FFAE46" stop-opacity="0"/>
</radialGradient>
<radialGradient id="paint7_radial_23_431" cx="0" cy="0" r="1" gradientUnits="userSpaceOnUse" gradientTransform="translate(17.5 15) rotate(43.9708) scale(59.0529)">
<stop offset="0.185425" stop-opacity="0"/>
<stop offset="1" stop-opacity="0.4"/>
</radialGradient>
<linearGradient id="paint8_linear_23_431" x1="13.3077" y1="12" x2="11.4078" y2="16.4092" gradientUnits="userSpaceOnUse">
<stop stop-color="#553B3E"/>
<stop offset="1" stop-color="#3D2432"/>
</linearGradient>
<radialGradient id="paint9_radial_23_431" cx="0" cy="0" r="1" gradientUnits="userSpaceOnUse" gradientTransform="translate(21 15) rotate(90) scale(4 5.85926)">
<stop offset="0.337213" stop-color="#4D274B"/>
<stop offset="0.628228" stop-color="#514047"/>
<stop offset="1" stop-color="#4E2553"/>
<stop offset="1" stop-color="#4A342F"/>
</radialGradient>
<linearGradient id="paint10_linear_23_431" x1="21.8333" y1="12.4" x2="21.8333" y2="10.6" gradientUnits="userSpaceOnUse">
<stop offset="0.0299084" stop-color="#524049"/>
<stop offset="1" stop-color="#4A2C42"/>
</linearGradient>
<linearGradient id="paint11_linear_23_431" x1="6.83322" y1="10.4" x2="6.83322" y2="8.6" gradientUnits="userSpaceOnUse">
<stop offset="0.0299084" stop-color="#524049"/>
<stop offset="1" stop-color="#4A2C42"/>
</linearGradient>
<radialGradient id="paint12_radial_23_431" cx="0" cy="0" r="1" gradientUnits="userSpaceOnUse" gradientTransform="translate(16 27.5556) rotate(-90) scale(8.55556 17.1111)">
<stop stop-color="#F70A8D"/>
<stop offset="1" stop-color="#89029C"/>
</radialGradient>
<linearGradient id="paint13_linear_23_431" x1="16" y1="19" x2="16" y2="20.5" gradientUnits="userSpaceOnUse">
<stop stop-color="#ECCDFF"/>
<stop offset="1" stop-color="white"/>
</linearGradient>
</defs>
</svg>

<svg width="32" height="32" fill="none" xmlns="http://www.w3.org/2000/svg"><path d="M15.999 29.998c9.334 0 13.999-6.268 13.999-14 0-7.73-4.665-13.998-14-13.998C6.665 2 2 8.268 2 15.999c0 7.731 4.664 13.999 13.999 13.999Z" fill="url(#a)"/><path d="M15.999 29.998c9.334 0 13.999-6.268 13.999-14 0-7.73-4.665-13.998-14-13.998C6.665 2 2 8.268 2 15.999c0 7.731 4.664 13.999 13.999 13.999Z" fill="url(#b)"/><path d="M15.999 29.998c9.334 0 13.999-6.268 13.999-14 0-7.73-4.665-13.998-14-13.998C6.665 2 2 8.268 2 15.999c0 7.731 4.664 13.999 13.999 13.999Z" fill="url(#c)"/><path d="M15.999 29.998c9.334 0 13.999-6.268 13.999-14 0-7.73-4.665-13.998-14-13.998C6.665 2 2 8.268 2 15.999c0 7.731 4.664 13.999 13.999 13.999Z" fill="url(#d)" fill-opacity=".6"/><path d="M15.999 29.998c9.334 0 13.999-6.268 13.999-14 0-7.73-4.665-13.998-14-13.998C6.665 2 2 8.268 2 15.999c0 7.731 4.664 13.999 13.999 13.999Z" fill="url(#e)"/><path d="M15.999 29.998c9.334 0 13.999-6.268 13.999-14 0-7.73-4.665-13.998-14-13.998C6.665 2 2 8.268 2 15.999c0 7.731 4.664 13.999 13.999 13.999Z" fill="url(#f)"/><path d="M15.999 29.998c9.334 0 13.999-6.268 13.999-14 0-7.73-4.665-13.998-14-13.998C6.665 2 2 8.268 2 15.999c0 7.731 4.664 13.999 13.999 13.999Z" fill="url(#g)"/><path d="M15.999 29.998c9.334 0 13.999-6.268 13.999-14 0-7.73-4.665-13.998-14-13.998C6.665 2 2 8.268 2 15.999c0 7.731 4.664 13.999 13.999 13.999Z" fill="url(#h)"/><path d="M13.958 17.38a4.5 4.5 0 1 0-6.915 0c.822-.413 2.062-.88 3.457-.88s2.635.467 3.458.88Z" fill="#fff"/><path d="M13.198 17.041a3 3 0 1 0-4.615-.264A7.056 7.056 0 0 1 10.5 16.5c1.015 0 1.948.247 2.698.541Z" fill="url(#i)"/><path fill-rule="evenodd" clip-rule="evenodd" d="M21 14c-1.455 0-1.952.931-2.03 1.242a1 1 0 1 1-1.94-.485C17.285 13.736 18.455 12 21 12s3.715 1.735 3.97 2.758a1 1 0 1 1-1.94.485C22.952 14.93 22.455 14 21 14Z" fill="url(#j)"/><path fill-rule="evenodd" clip-rule="evenodd" d="M21 8.5a.5.5 0 0 1 .5-.5c.774 0 1.742.284 2.585.83.848.55 1.612 1.396 1.9 2.549a.5.5 0 0 1-.97.242c-.212-.847-.781-1.502-1.475-1.952C22.84 9.216 22.06 9 21.5 9a.5.5 0 0 1-.5-.5Z" fill="url(#k)"/><path fill-rule="evenodd" clip-rule="evenodd" d="M8.07 7.988c-.594.562-.952 1.24-1.096 1.67a.5.5 0 1 1-.948-.316c.19-.57.63-1.392 1.355-2.08C8.113 6.567 9.148 6 10.5 6a.5.5 0 0 1 0 1c-1.048 0-1.846.433-2.43.988Z" fill="url(#l)"/><path d="M16 26c-7 0-7-7-7-7h14s0 7-7 7Z" fill="url(#m)"/><path fill-rule="evenodd" clip-rule="evenodd" d="M22.814 20.5H9.186C9 19.624 9 19 9 19h14s0 .624-.186 1.5Z" fill="url(#n)"/><defs><radialGradient id="a" cx="0" cy="0" r="1" gradientUnits="userSpaceOnUse" gradientTransform="rotate(132.839 10.786 10.065) scale(37.5033)"><stop stop-color="#FFF478"/><stop offset=".475" stop-color="#FFB02E"/><stop offset="1" stop-color="#F70A8D"/></radialGradient><radialGradient id="b" cx="0" cy="0" r="1" gradientUnits="userSpaceOnUse" gradientTransform="rotate(131.878 10.74 10.193) scale(38.9487)"><stop stop-color="#FFF478"/><stop offset=".475" stop-color="#FFB02E"/><stop offset="1" stop-color="#F70A8D"/></radialGradient><radialGradient id="c" cx="0" cy="0" r="1" gradientUnits="userSpaceOnUse" gradientTransform="rotate(101.31 2.876 12.808) scale(17.8466 22.8581)"><stop offset=".788" stop-color="#F59639" stop-opacity="0"/><stop offset=".973" stop-color="#FF7DCE"/></radialGradient><radialGradient id="d" cx="0" cy="0" r="1" gradientUnits="userSpaceOnUse" gradientTransform="matrix(-29 29 -29 -29 18 14)"><stop offset=".315" stop-opacity="0"/><stop offset="1"/></radialGradient><radialGradient id="e" cx="0" cy="0" r="1" gradientUnits="userSpaceOnUse" gradientTransform="rotate(77.692 -2.555 18.434) scale(28.1469)"><stop offset=".508" stop-color="#7D6133" stop-opacity="0"/><stop offset="1" stop-color="#715B32"/></radialGradient><radialGradient id="f" cx="0" cy="0" r="1" gradientUnits="userSpaceOnUse" gradientTransform="rotate(55.713 -7.36 23.86) scale(13.3135 9.65032)"><stop stop-color="#FFB849"/><stop offset="1" stop-color="#FFB847" stop-opacity="0"/></radialGradient><radialGradient id="g" cx="0" cy="0" r="1" gradientUnits="userSpaceOnUse" gradientTransform="matrix(11.49998 2 -2 11.49998 20.5 18)"><stop stop-color="#FFA64B"/><stop offset=".9" stop-color="#FFAE46" stop-opacity="0"/></radialGradient><radialGradient id="h" cx="0" cy="0" r="1" gradientUnits="userSpaceOnUse" gradientTransform="rotate(43.971 -9.827 29.173) scale(59.0529)"><stop offset=".185" stop-opacity="0"/><stop offset="1" stop-opacity=".4"/></radialGradient><radialGradient id="j" cx="0" cy="0" r="1" gradientUnits="userSpaceOnUse" gradientTransform="matrix(0 4 -5.85926 0 21 15)"><stop offset=".337" stop-color="#4D274B"/><stop offset=".628" stop-color="#514047"/><stop offset="1" stop-color="#4E2553"/><stop offset="1" stop-color="#4A342F"/></radialGradient><radialGradient id="m" cx="0" cy="0" r="1" gradientUnits="userSpaceOnUse" gradientTransform="matrix(0 -8.55556 17.1111 0 16 27.556)"><stop stop-color="#F70A8D"/><stop offset="1" stop-color="#89029C"/></radialGradient><linearGradient id="i" x1="13.308" y1="12" x2="11.408" y2="16.409" gradientUnits="userSpaceOnUse"><stop stop-color="#553B3E"/><stop offset="1" stop-color="#3D2432"/></linearGradient><linearGradient id="k" x1="21.833" y1="12.4" x2="21.833" y2="10.6" gradientUnits="userSpaceOnUse"><stop offset=".03" stop-color="#524049"/><stop offset="1" stop-color="#4A2C42"/></linearGradient><linearGradient id="l" x1="6.833" y1="10.4" x2="6.833" y2="8.6" gradientUnits="userSpaceOnUse"><stop offset=".03" stop-color="#524049"/><stop offset="1" stop-color="#4A2C42"/></linearGradient><linearGradient id="n" x1="16" y1="19" x2="16" y2="20.5" gradientUnits="userSpaceOnUse"><stop stop-color="#ECCDFF"/><stop offset="1" stop-color="#fff"/></linearGradient></defs></svg>
